usr/share/icons/Gooroom-Faenza/status/symbolic/audio-volume-muted-symbolic.svg

<?xml version="1.0" encoding="UTF-8" standalone="no"?>
<svg
   xmlns:dc="http://purl.org/dc/elements/1.1/"
   xmlns:cc="http://creativecommons.org/ns#"
   xmlns:rdf="http://www.w3.org/1999/02/22-rdf-syntax-ns#"
   xmlns:svg="http://www.w3.org/2000/svg"
   xmlns="http://www.w3.org/2000/svg"
   xmlns:sodipodi="http://sodipodi.sourceforge.net/DTD/sodipodi-0.dtd"
   xmlns:inkscape="http://www.inkscape.org/namespaces/inkscape"
   width="24"
   height="24"
   viewBox="0 0 24 24"
   version="1.1"
   id="svg14"
   sodipodi:docname="mute-02.svg"
   inkscape:version="0.92.4 (5da689c313, 2019-01-14)">
  <metadata
     id="metadata20">
    <rdf:RDF>
      <cc:Work
         rdf:about="">
        <dc:format>image/svg+xml</dc:format>
        <dc:type
           rdf:resource="http://purl.org/dc/dcmitype/StillImage" />
      </cc:Work>
    </rdf:RDF>
  </metadata>
  <defs
     id="defs18" />
  <sodipodi:namedview
     pagecolor="#ffffff"
     bordercolor="#666666"
     borderopacity="1"
     objecttolerance="10"
     gridtolerance="10"
     guidetolerance="10"
     inkscape:pageopacity="0"
     inkscape:pageshadow="2"
     inkscape:window-width="1920"
     inkscape:window-height="1004"
     id="namedview16"
     showgrid="false"
     inkscape:zoom="9.8333333"
     inkscape:cx="12"
     inkscape:cy="5.3041364"
     inkscape:window-x="0"
     inkscape:window-y="0"
     inkscape:window-maximized="1"
     inkscape:current-layer="svg14" />
  <path
     style="fill:#ffffff;fill-rule:evenodd"
     inkscape:connector-curvature="0"
     id="path2"
     d="M 7,9 10,6 V 18 L 7,15 H 4 A 1,1 0 0 1 3,14 V 10 A 1,1 0 0 1 4,9 Z" />
  <path
     style="fill:#ffffff;fill-opacity:0.2;fill-rule:evenodd"
     inkscape:connector-curvature="0"
     id="path4"
     d="m 12,3 a 9,9 0 0 1 0,18 V 19 A 7,7 0 0 0 12,5 Z" />
  <path
     style="fill:#ffffff;fill-opacity:0.2;fill-rule:evenodd"
     inkscape:connector-curvature="0"
     id="path6"
     d="m 12,6 a 6,6 0 1 1 0,12 v -2 a 4,4 0 1 0 0,-8 z" />
  <path
     style="fill:#ffffff;fill-opacity:0.2;fill-rule:evenodd"
     inkscape:connector-curvature="0"
     id="path8"
     d="m 12,9 a 3,3 0 0 1 0,6 v -2 a 1,1 0 1 0 0,-2 z" />
  <path
     style="fill:#ffffff;fill-rule:evenodd"
     inkscape:connector-curvature="0"
     id="path10"
     d="m 16.243,10.828 2.121,-2.12 a 1,1 0 0 1 1.414,1.413 l -2.121,2.122 2.121,2.121 a 1,1 0 0 1 -1.414,1.414 l -2.121,-2.121 -2.122,2.121 a 1,1 0 1 1 -1.414,-1.414 l 2.121,-2.121 -2.12,-2.122 a 1,1 0 0 1 1.413,-1.414 z" />
</svg>

<svg xmlns="http://www.w3.org/2000/svg" width="24" height="24" viewBox="0 0 24 24">
    <g fill="#FFF" fill-rule="evenodd">
        <path d="M7 9l3-3v12l-3-3H4a1 1 0 0 1-1-1v-4a1 1 0 0 1 1-1h3z"/>
        <path fill-opacity=".2" d="M12 3a9 9 0 0 1 0 18v-2a7 7 0 0 0 0-14V3z"/>
        <path fill-opacity=".2" d="M12 6a6 6 0 1 1 0 12v-2a4 4 0 1 0 0-8V6z"/>
        <path fill-opacity=".2" d="M12 9a3 3 0 0 1 0 6v-2a1 1 0 1 0 0-2V9z"/>
        <path d="M15 7a1 1 0 0 1 1 1v5a1 1 0 0 1-2 0V8a1 1 0 0 1 1-1zm0 8a1 1 0 1 1 0 2 1 1 0 0 1 0-2z"/>
    </g>
</svg>
